X:1
T:Title
%%score [ ( 1 2 ) ( 3 4 ) ]
L:1/8
Q:1/4=120
M:none
K:A
V:1 treble nm="Midi_74"
V:2 treble 
V:3 bass nm="Midi_74"
V:4 bass 
V:1
 c8 | B4 A4 | G8 || A8 | B4 c4 | d4 c4 | B8 || G8 | c4 B4 | A8 || d8 | c4 B4 | %12
 A4"^R. Woodward\n(1743-1777)" G4 | A8 | %14
V:2
 E8 | E4 ^D4 | E8 || E8 | E4 E4 | E4 E4 | E8 || E8 | G4 ^E4 | F8 || E8 | E4 F4 | E4 E4 | E8 | %14
V:3
 A,8 | B,4 B,4 | B,8 || A,8 | G,4 A,4 | B,4 A,4 | G,8 || B,8 | C4 C4 | C8 || B,8 | C4 D4 | C4 B,4 | %13
 C8 | %14
V:4
 A,8 | G,4 F,4 | E,8 || C,8 | B,,4 A,,4 | G,,4 A,,4 | E,8 || E,8 | ^E,4 C,4 | F,8 || G,8 | %11
 A,4 D,4 | E,4 E,4 | A,,8 | %14

